X:93
T: ES ZOGEN ZWEI GRAFEN WOHL UEBER DEN RHEIN
N: Z0093
O: Europa, Mitteleuropa, Deutschland, Herzogtum Berg
R: Sagen - Lied, Romanze, Tod
M: 4/4
L: 1/8
K: A
E2 | A2AAA2BB | c2BBA2
E2 | B2BBB2cc | d2ccB2
e2 | cccccedc | BAGAB3
B | c2c2edcB | c4B4 | A6

